!!!SOCIAL_FUNCTION:	dream songs
!!!PDT:	1913
!!!OTL: No_149_One_Wind.krn
!!!REG: Great_Lakes
!!!LANG: Non-Tone
!!!LING_GROUP: Algonquin
**kern	**kern
*staff2	*staff1
=1-	=1-
*clefF4	*clefF4
*k[f#c#g#d#a#]	*k[f#c#g#d#a#]
*M3/4	*M3/4
12GG#^/	2f#\
12r	.
12GG#/	.
12GG#^/	.
12r	.
12GG#/	.
12GG#^/	8.f#\L
12r	.
12GG#/	.
.	16d#\Jk
=2	=2
2.r	4f#\
.	4d#\
.	4d#\
=3	=3
2.r	2f#\
.	16d#\LL
.	16d#\
.	16c#\
.	16B\JJ
=4||	=4||
*M2/4	*M2/4
2r	8.d#\L
.	16c#\Jk
.	4B\
=5	=5
2r	8f#\L
.	8f#\J
.	8d#\L
.	8d#\J
=6	=6
2r	16B\LL
.	16B\
.	16G#\
.	16F#\JJ
.	8.B\L
.	16G#\Jk
=7||	=7||
*M3/4	*M3/4
2.r	8F#\L
.	8F#\J
.	8F#\L
.	8F#\J
.	4F#\
=8	=8
2.r	8B\L
.	8B\J
.	8.B\L
.	16B\Jk
.	8.F#\L
.	16D#\Jk
=9	=9
2.r	4F#\
.	4D#\
.	4D#\
=10	=10
2.r	2F#\
.	8.F#\L
.	16D#\Jk
=11||	=11||
*M2/4	*M2/4
2r	4F#\
.	4D#\
=12	=12
2r	4.D#\
.	8D#\
=13||	=13||
*M3/4	*M3/4
2.r	2D#\
.	4r
=14	=14
2.r	8B\L
.	8d#\J
.	12d#\L
.	8d#\
.	24f#\Jk
.	(12d#\L
.	12c#\)
.	12B\J
=15||	=15||
*M2/4	*M2/4
2r	(8.d#\L
.	16c#\Jk)
.	4B\
=16	=16
2r	8B\L
.	8f#\J
.	8d#\L
.	8d#\J
=17	=17
2r	16B\LL
.	16B\
.	16G#\
.	16F#\JJ
.	8.B\L
.	16G#\Jk
=18||	=18||
*M3/4	*M3/4
2.r	8F#\L
.	8F#\J
.	8F#\L
.	8F#\J
.	4F#\
=19	=19
2.r	8B\L
.	8B\J
.	8.B\L
.	16B\Jk
.	8.F#\L
.	16D#\Jk
=20	=20
2.r	4F#\
.	4D#\
.	4D#\
=21	=21
2.r	2F#\
.	8.F#\L
.	16D#\Jk
=22||	=22||
*M2/4	*M2/4
2r	4F#\
.	4D#\
=23	=23
2r	4.D#\
.	8D#\
=24	=24
2r	2D#\
==	==
*-	*-
